svgs/duotone/hospital-user.svg

<svg xmlns="http://www.w3.org/2000/svg" viewBox="0 0 576 512"><!--! Font Awesome Pro 6.6.0 by @fontawesome - https://fontawesome.com License - https://fontawesome.com/license (Commercial License) Copyright 2024 Fonticons, Inc. --><defs><style>.fa-secondary{opacity:.4}</style></defs><path class="fa-secondary" d="M0 48C0 21.5 21.5 0 48 0L272 0c26.5 0 48 21.5 48 48l0 223.8 0 95.9c-38.2 21.4-64 62.3-64 109.2c0 12.9 3.6 24.9 9.9 35.1L48 512c-26.5 0-48-21.5-48-48l0-80 144 0c8.8 0 16-7.2 16-16s-7.2-16-16-16L0 352l0-64 144 0c8.8 0 16-7.2 16-16s-7.2-16-16-16L0 256 0 48zm96 72l0 16c0 8.8 7.2 16 16 16l24 0 0 24c0 8.8 7.2 16 16 16l16 0c8.8 0 16-7.2 16-16l0-24 24 0c8.8 0 16-7.2 16-16l0-16c0-8.8-7.2-16-16-16l-24 0 0-24c0-8.8-7.2-16-16-16l-16 0c-8.8 0-16 7.2-16 16l0 24-24 0c-8.8 0-16 7.2-16 16z"/><path class="fa-primary" d="M432 352a80 80 0 1 0 0-160 80 80 0 1 0 0 160zm-50.9 32c-51.4 0-93.1 41.7-93.1 93.1c0 19.3 15.6 34.9 34.9 34.9l218.2 0c19.3 0 34.9-15.6 34.9-34.9c0-51.4-41.7-93.1-93.1-93.1l-101.8 0z"/></svg>

<svg xmlns="http://www.w3.org/2000/svg" viewBox="0 0 576 512"><!--! Font Awesome Pro 6.4.0 by @fontawesome - https://fontawesome.com License - https://fontawesome.com/license (Commercial License) Copyright 2023 Fonticons, Inc. --><defs><style>.fa-secondary{opacity:.4}</style></defs><path class="fa-primary" d="M432 352a80 80 0 1 0 0-160 80 80 0 1 0 0 160zm-50.9 32c-51.4 0-93.1 41.7-93.1 93.1c0 19.3 15.6 34.9 34.9 34.9H541.1c19.3 0 34.9-15.6 34.9-34.9c0-51.4-41.7-93.1-93.1-93.1H381.1z"/><path class="fa-secondary" d="M0 48C0 21.5 21.5 0 48 0H272c26.5 0 48 21.5 48 48V271.8v95.9c-38.2 21.4-64 62.3-64 109.2c0 12.9 3.6 24.9 9.9 35.1H48c-26.5 0-48-21.5-48-48V384H144c8.8 0 16-7.2 16-16s-7.2-16-16-16H0V288H144c8.8 0 16-7.2 16-16s-7.2-16-16-16H0V48zM136 80v24H112c-8.8 0-16 7.2-16 16v16c0 8.8 7.2 16 16 16h24v24c0 8.8 7.2 16 16 16h16c8.8 0 16-7.2 16-16V152h24c8.8 0 16-7.2 16-16V120c0-8.8-7.2-16-16-16H184V80c0-8.8-7.2-16-16-16H152c-8.8 0-16 7.2-16 16z"/></svg>
